svg/700/outlined/spoke.svg

<svg xmlns="http://www.w3.org/2000/svg" width="48" height="48" viewBox="0 -960 960 960"><path d="M480.314-527q-72.721 0-124.018-51.053Q305-629.105 305-700.796q0-73.229 51.341-124.717Q407.683-877 479.779-877 553-877 604.5-825.518 656-774.035 656-701.314t-51.482 123.518Q553.035-527 480.314-527Zm-.518-94Q514-621 537.5-644.451q23.5-23.45 23.5-56.381 0-34.218-23.296-57.693-23.297-23.475-57-23.475Q447-782 423-758.704q-24 23.297-24 57Q399-668 422.734-644.5t57.062 23.5ZM247.721-95Q175-95 123.5-146.341 72-197.683 72-269.779 72-343 123.756-394.5T247.204-446q73.228 0 124.012 51.482Q422-343.035 422-270.314t-50.779 124.018Q320.442-95 247.721-95Zm-.889-94q34.218 0 57.693-23.734Q328-236.468 328-269.796 328-304 304.704-327.5q-23.297-23.5-57-23.5Q214-351 190.5-327.704q-23.5 23.297-23.5 57Q167-237 190.451-213q23.45 24 56.381 24Zm466.464 94q-72.728 0-124.012-51.341Q538-197.683 538-269.779 538-343 589.341-394.5T712.779-446Q786-446 837-394.518q51 51.483 51 124.204t-51.194 124.018Q785.612-95 713.296-95Zm-.5-94Q747-189 770.5-212.734t23.5-57.062Q794-304 770.319-327.5T713.332-351q-33.718 0-57.525 23.296-23.807 23.297-23.807 57Q632-237 655.734-213t57.062 24ZM480-701ZM247-270Zm466 0Z"/></svg>

<svg xmlns="http://www.w3.org/2000/svg" width="48" height="48" viewBox="0 -960 960 960"><path d="M480.31-527q-72.72 0-124.01-51.05Q305-629.11 305-700.8q0-73.23 51.34-124.71Q407.68-877 479.78-877q73.22 0 124.72 51.48T656-701.31q0 72.72-51.48 123.51Q553.04-527 480.31-527Zm-.51-94q34.2 0 57.7-23.45t23.5-56.38q0-34.22-23.3-57.7-23.29-23.47-57-23.47-33.7 0-57.7 23.3-24 23.29-24 57 0 33.7 23.73 57.2Q446.47-621 479.8-621ZM247.72-95Q175-95 123.5-146.34T72-269.78Q72-343 123.76-394.5 175.51-446 247.2-446q73.23 0 124.02 51.48Q422-343.04 422-270.31q0 72.72-50.78 124.01Q320.44-95 247.72-95Zm-.89-94q34.22 0 57.69-23.73Q328-236.47 328-269.8q0-34.2-23.3-57.7-23.29-23.5-57-23.5-33.7 0-57.2 23.3-23.5 23.29-23.5 57 0 33.7 23.45 57.7t56.38 24ZM713.3-95q-72.73 0-124.02-51.34Q538-197.68 538-269.78q0-73.22 51.34-124.72T712.78-446Q786-446 837-394.52t51 124.21q0 72.72-51.19 124.01Q785.61-95 713.3-95Zm-.5-94q34.2 0 57.7-23.73Q794-236.47 794-269.8q0-34.2-23.68-57.7T713.33-351q-33.72 0-57.52 23.3-23.81 23.29-23.81 57 0 33.7 23.73 57.7 23.74 24 57.07 24ZM480-701ZM247-270Zm466 0Z"/></svg>
